X: 222
T: You huayuan
L: 1/8
M: 2/4
K: G
d e d B [I:setbarnb 1]| 
d ed2 | 
e d c B | 
d d/ d/ B d- | 
d e d e | 
d d B A | 
G B B E | 
D4 | 
d d B A | 
B ED2 | 
d d B B/ A/ | 
A ED2 | 
A A E G | 
A Bd2 | 
g> g d d | 
B B/ A/ E G | 
A A/ E/D2- | 
D2z2 |]

@@@ Tune index: 9096
